icons/shopify-light.svg

<svg width="256" height="256" viewBox="0 0 256 256" fill="none" xmlns="http://www.w3.org/2000/svg">
<g clip-path="url(#clip0_164_679)">
<path d="M196 0H60C26.8629 0 0 26.8629 0 60V196C0 229.137 26.8629 256 60 256H196C229.137 256 256 229.137 256 196V60C256 26.8629 229.137 0 196 0Z" fill="#F4F2ED"/>
<path d="M184.899 74.3647C184.778 73.4897 184.012 73.0055 183.378 72.9521C182.746 72.8994 169.365 71.9075 169.365 71.9075C169.365 71.9075 160.071 62.6811 159.051 61.6598C158.03 60.6392 156.037 60.9496 155.263 61.1774C155.15 61.2109 153.233 61.8025 150.063 62.7836C146.958 53.8502 141.479 45.6407 131.84 45.6407C131.574 45.6407 131.3 45.6515 131.026 45.6671C128.285 42.0419 124.889 40.4669 121.956 40.4669C99.5031 40.4669 88.776 68.5358 85.4126 82.7995C76.6878 85.503 70.4897 87.425 69.698 87.6737C64.8279 89.2014 64.6739 89.3548 64.0344 93.9437C63.5532 97.418 50.8105 195.963 50.8105 195.963L150.104 214.567L203.904 202.928C203.904 202.928 185.018 75.2397 184.899 74.3647ZM144.575 64.4808L136.173 67.0812C136.176 66.4891 136.179 65.9066 136.179 65.2695C136.179 59.7175 135.408 55.2472 134.172 51.7034C139.138 52.3267 142.446 57.9776 144.575 64.4808ZM128.011 52.8044C129.392 56.2642 130.289 61.2295 130.289 67.9299C130.289 68.2727 130.286 68.5861 130.283 68.9032C124.819 70.5956 118.882 72.4331 112.931 74.2766C116.273 61.3818 122.535 55.1537 128.011 52.8044ZM121.34 46.4894C122.309 46.4894 123.285 46.8184 124.219 47.4615C117.023 50.8476 109.31 59.3758 106.053 76.4066L92.3371 80.6545C96.1523 67.6644 105.212 46.4894 121.34 46.4894Z" fill="#95BF46"/>
<path d="M183.378 72.9522C182.746 72.8994 169.364 71.9076 169.364 71.9076C169.364 71.9076 160.071 62.6811 159.051 61.6599C158.669 61.2799 158.154 61.0851 157.616 61.0012L150.108 214.566L203.904 202.928C203.904 202.928 185.017 75.2397 184.899 74.3647C184.778 73.4897 184.012 73.0055 183.378 72.9522Z" fill="#5E8E3E"/>
<path d="M131.84 102.679L125.206 122.412C125.206 122.412 119.394 119.31 112.27 119.31C101.825 119.31 101.299 125.865 101.299 127.517C101.299 136.529 124.792 139.983 124.792 161.093C124.792 177.702 114.258 188.396 100.054 188.396C83.0099 188.396 74.2935 177.789 74.2935 177.789L78.8572 162.71C78.8572 162.71 87.817 170.402 95.3774 170.402C100.318 170.402 102.327 166.512 102.327 163.67C102.327 151.914 83.053 151.39 83.053 132.072C83.053 115.813 94.7229 100.08 118.28 100.08C127.356 100.08 131.84 102.679 131.84 102.679Z" fill="white"/>
</g>
<defs>
<clipPath id="clip0_164_679">
<rect width="256" height="256" fill="white"/>
</clipPath>
</defs>
</svg>

<svg xmlns="http://www.w3.org/2000/svg" width="256" height="256" fill="none"><g clip-path="url(#clip0_164_679)"><path fill="#F4F2ED" d="M196 0H60C26.863 0 0 26.863 0 60v136c0 33.137 26.863 60 60 60h136c33.137 0 60-26.863 60-60V60c0-33.137-26.863-60-60-60"/><path fill="#95BF46" d="M184.899 74.365c-.121-.875-.887-1.36-1.521-1.413-.632-.053-14.013-1.044-14.013-1.044s-9.294-9.227-10.314-10.248c-1.021-1.02-3.014-.71-3.788-.483-.113.034-2.03.626-5.2 1.607-3.105-8.934-8.584-17.143-18.223-17.143-.266 0-.54.01-.814.026-2.741-3.625-6.137-5.2-9.07-5.2-22.453 0-33.18 28.069-36.543 42.332a13671 13671 0 0 0-15.715 4.875c-4.87 1.527-5.024 1.68-5.664 6.27-.48 3.474-13.224 102.019-13.224 102.019l99.294 18.604 53.8-11.639S185.018 75.24 184.899 74.365m-40.324-9.884-8.402 2.6c.003-.592.006-1.174.006-1.812 0-5.552-.771-10.022-2.007-13.566 4.966.624 8.274 6.275 10.403 12.778m-16.564-11.677c1.381 3.46 2.278 8.426 2.278 15.126 0 .343-.003.656-.006.973l-17.352 5.374c3.342-12.895 9.604-19.123 15.08-21.473m-6.671-6.315c.969 0 1.945.33 2.879.973-7.196 3.386-14.909 11.914-18.166 28.945l-13.716 4.248c3.815-12.99 12.875-34.166 29.003-34.166"/><path fill="#5E8E3E" d="M183.378 72.952c-.632-.053-14.014-1.044-14.014-1.044s-9.293-9.227-10.313-10.248c-.382-.38-.897-.575-1.435-.659l-7.508 153.565 53.796-11.638S185.017 75.24 184.899 74.365c-.121-.875-.887-1.36-1.521-1.413"/><path fill="#fff" d="m131.84 102.679-6.634 19.733s-5.812-3.102-12.936-3.102c-10.445 0-10.971 6.555-10.971 8.207 0 9.012 23.493 12.466 23.493 33.576 0 16.609-10.534 27.303-24.738 27.303-17.044 0-25.76-10.607-25.76-10.607l4.563-15.079s8.96 7.692 16.52 7.692c4.941 0 6.95-3.89 6.95-6.732 0-11.756-19.274-12.28-19.274-31.598 0-16.259 11.67-31.992 35.227-31.992 9.076 0 13.56 2.599 13.56 2.599"/></g><defs><clipPath id="clip0_164_679"><path fill="#fff" d="M0 0h256v256H0z"/></clipPath></defs></svg>
